brandFactory_export/1.Light/Hotel_1Light.svg

<?xml version="1.0" encoding="UTF-8"?>
<svg width="24px" height="24px" viewBox="0 0 24 24" version="1.1" xmlns="http://www.w3.org/2000/svg" xmlns:xlink="http://www.w3.org/1999/xlink">
    <title>1.Light/Hotel_1Light</title>
    <g id="Symbols" stroke="none" stroke-width="1" fill="none" fill-rule="evenodd">
        <g id="1.Light/Hotel_1Light" fill="#5CB615" fill-rule="nonzero">
            <path d="M12.3327731,22.6319328 C14.7495798,22.5882353 22.6386555,21.6806723 22.6386555,11.8453782 C22.6386555,7.58655462 21.1798319,4.51092437 18.3092437,2.7092437 C15.9630252,1.23697479 13.3142857,1.02184874 12.2823529,0.994957983 C11.9865546,0.988235294 11.6941176,0.98487395 11.3983193,0.98487395 L11.1932773,0.98487395 C10.1680672,0.994957983 7.5394958,1.17310924 5.22689076,2.62521008 C2.41008403,4.39663866 0.98487395,7.47563025 0.98487395,11.7747899 C0.98487395,16.0773109 2.42689076,19.1663866 5.27058824,20.9613445 C7.60336134,22.4302521 10.2554622,22.6218487 11.287395,22.6386555 C11.405042,22.6420168 11.5226891,22.6420168 11.6403361,22.6420168 C11.8857143,22.6386555 12.1243697,22.6352941 12.3327731,22.6319328 Z M12.3058824,0.0134453782 C14.6184874,0.0672268908 23.6235294,0.981512605 23.6235294,11.8453782 C23.6235294,22.7327731 14.6084034,23.5764706 12.3529412,23.6201681 C12.1378151,23.6235294 11.8890756,23.6268908 11.6403361,23.6268908 C11.5159664,23.6268908 11.3915966,23.6268908 11.2705882,23.6235294 C8.89747899,23.5865546 0,22.7294118 0,11.7747899 C0,0.83697479 8.81680672,0.0201680672 11.1865546,0 L11.3983193,0 C11.707563,0 12.0268908,0.00336134454 12.3058824,0.0134453782 Z M16.9882353,18.2084034 L16.9882353,5.41512605 L14.0672269,5.41512605 L14.0672269,10.6319328 L9.55630252,10.6319328 L9.55630252,5.41512605 L6.63529412,5.41512605 L6.63529412,18.2084034 L9.55630252,18.2084034 L9.55630252,12.8235294 L14.0672269,12.8235294 L14.0672269,18.2117647 L16.9882353,18.2084034 Z M16.9882353,4.43361345 C17.5327731,4.43361345 17.9731092,4.87394958 17.9731092,5.41848739 L17.9731092,18.2117647 C17.9731092,18.7563025 17.5327731,19.1966387 16.9882353,19.1966387 L14.0672269,19.1966387 C13.5226891,19.1966387 13.0823529,18.7563025 13.0823529,18.2117647 L13.0823529,13.8084034 L10.5411765,13.8084034 L10.5411765,18.2117647 C10.5411765,18.7563025 10.1008403,19.1966387 9.55630252,19.1966387 L6.63865546,19.1966387 C6.09411765,19.1966387 5.65378151,18.7563025 5.65378151,18.2117647 L5.65378151,5.41512605 C5.65378151,4.87058824 6.09411765,4.4302521 6.63865546,4.4302521 L9.55966387,4.4302521 C10.1042017,4.4302521 10.5445378,4.87058824 10.5445378,5.41512605 L10.5445378,9.64705882 L13.0857143,9.64705882 L13.0857143,5.41512605 C13.0857143,4.87058824 13.5260504,4.4302521 14.0705882,4.4302521 C14.0672269,4.43361345 16.9882353,4.43361345 16.9882353,4.43361345 Z" id="Hotel_1Light"></path>
        </g>
    </g>
</svg>

<svg width="24" height="24" viewBox="0 0 24 24" xmlns="http://www.w3.org/2000/svg"><path d="M12.333 22.632c2.417-.044 10.306-.951 10.306-10.787 0-4.258-1.46-7.334-4.33-9.136-2.346-1.472-4.995-1.687-6.027-1.714-.295-.007-.588-.01-.884-.01h-.205c-1.025.01-3.654.188-5.966 1.64C2.41 4.397.985 7.475.985 11.775c0 4.302 1.442 7.391 4.286 9.186 2.332 1.47 4.984 1.66 6.016 1.678.118.003.236.003.353.003l.693-.01zM12.306.013c2.312.054 11.318.969 11.318 11.832 0 10.888-9.016 11.731-11.271 11.775-.215.004-.464.007-.713.007-.124 0-.248 0-.37-.003C8.898 23.587 0 22.729 0 11.774 0 .838 8.817.02 11.187 0h.211c.31 0 .629.003.908.013zm4.682 18.195V5.415h-2.92v5.217H9.555V5.415h-2.92v12.793h2.92v-5.384h4.511v5.388l2.921-.004zm0-13.774c.545 0 .985.44.985.984v12.794c0 .544-.44.985-.985.985h-2.92a.984.984 0 01-.986-.985v-4.404h-2.54v4.404c0 .544-.441.985-.986.985H6.64a.984.984 0 01-.985-.985V5.415c0-.544.44-.985.985-.985h2.92c.545 0 .986.44.986.985v4.232h2.54V5.415c0-.544.441-.985.986-.985-.004.004 2.917.004 2.917.004z" fill="#5CB615" fill-rule="nonzero"/></svg>
